;FLAVOR:Marlin
;Layer height: 0.20
M82 ;absolute extrusion mode
G21 ;metric values
G90 ;absolute positioning
M107 ;Fan off
M140 S70 ;set bed temp
M190 S70 ;wait for bed temp
M104 S190 ;set extruder0 temp
M109 S190 ;wait for extruder0 temp
G28 X0 Y0 ;auto-home all axes
G28 Z0 ;auto-home all axes
G1 Z15 F6000 ;raise extruder
G92 E0 ;Zero extruder
M117 Printing...
;LAYER_COUNT:50
;LAYER:0
( Nozzle 0 )
G1 Z0.20 F300
G0 X5.62 Y10.00 F6000
G1 E3.000 F1800
G1 X5.62 Y20.00 E4.429 F3600
G1 E1.429 F1800
G0 X100.21 Y101.01 F6000
G1 E4.429 F1800
G1 X100.44 Y101.01 E4.462 F3600
G1 X100.67 Y101.05 E4.496 F3600
G1 X100.81 Y101.07 E4.515 F3600
G1 X100.96 Y101.13 E4.538 F3600
G1 X100.97 Y101.14 E4.541 F3600
G1 X100.97 Y101.15 E4.543 F3600
G1 X100.86 Y101.19 E4.559 F3600
G1 X100.75 Y101.23 E4.576 F3600
G1 X100.65 Y101.24 E4.590 F3600
G1 X100.65 Y101.24 E4.590 F3600
G1 X100.41 Y101.27 E4.625 F3600
G1 X100.33 Y101.27 E4.636 F3600
G1 X100.00 Y101.27 E4.683 F3600
G1 X99.67 Y101.27 E4.731 F3600
G1 X99.59 Y101.27 E4.741 F3600
G1 X99.35 Y101.24 E4.777 F3600
G1 X99.34 Y101.24 E4.777 F3600
G1 X99.25 Y101.23 E4.791 F3600
G1 X99.14 Y101.19 E4.808 F3600
G1 X99.03 Y101.15 E4.824 F3600
G1 X99.03 Y101.14 E4.826 F3600
G1 X99.04 Y101.13 E4.828 F3600
G1 X99.19 Y101.07 E4.851 F3600
G1 X99.33 Y101.05 E4.871 F3600
G1 X99.56 Y101.01 E4.905 F3600
G1 X99.79 Y101.01 E4.938 F3600
G1 X100.00 Y101.00 E4.968 F3600
G1 X100.21 Y101.01 E4.997 F3600
G1 E1.997 F1800
;LAYER:1
( Nozzle 0 )
G1 Z0.40 F300
G0 X98.94 Y101.46 F6000
G1 E4.997 F1800
G1 X98.90 Y101.43 E5.005 F3600
G1 X98.75 Y101.34 E5.029 F3600
G1 X98.73 Y101.31 E5.034 F3600
G1 X98.73 Y101.30 E5.036 F3600
G1 X98.64 Y101.19 E5.055 F3600
G1 X98.63 Y101.06 E5.075 F3600
G1 X98.65 Y100.98 E5.087 F3600
G1 X98.70 Y100.93 E5.096 F3600
G1 X98.83 Y100.84 E5.119 F3600
G1 X99.04 Y100.78 E5.151 F3600
G1 X99.04 Y100.78 E5.151 F3600
G1 X99.16 Y100.74 E5.168 F3600
G1 X99.22 Y100.73 E5.176 F3600
G1 X99.22 Y100.73 E5.176 F3600
G1 X99.55 Y100.70 E5.224 F3600
G1 X99.57 Y100.70 E5.227 F3600
G1 X100.00 Y100.69 E5.289 F3600
G1 X100.43 Y100.70 E5.350 F3600
G1 X100.45 Y100.70 E5.353 F3600
G1 X100.78 Y100.73 E5.401 F3600
G1 X100.78 Y100.73 E5.401 F3600
G1 X100.84 Y100.74 E5.409 F3600
G1 X100.96 Y100.78 E5.426 F3600
G1 X100.96 Y100.78 E5.426 F3600
G1 X101.17 Y100.84 E5.458 F3600
G1 X101.30 Y100.93 E5.481 F3600
G1 X101.34 Y100.98 E5.490 F3600
G1 X101.37 Y101.06 E5.502 F3600
G1 X101.36 Y101.19 E5.522 F3600
G1 X101.27 Y101.30 E5.541 F3600
G1 X101.26 Y101.31 E5.543 F3600
G1 X101.24 Y101.34 E5.548 F3600
G1 X101.10 Y101.43 E5.572 F3600
G1 X101.06 Y101.46 E5.580 F3600
G1 X100.88 Y101.51 E5.605 F3600
G1 X100.76 Y101.54 E5.624 F3600
G1 X100.74 Y101.54 E5.626 F3600
G1 X100.40 Y101.57 E5.675 F3600
G1 X100.33 Y101.57 E5.686 F3600
G1 X100.00 Y101.58 E5.733 F3600
G1 X99.67 Y101.57 E5.780 F3600
G1 X99.60 Y101.57 E5.790 F3600
G1 X99.25 Y101.54 E5.839 F3600
G1 X99.24 Y101.54 E5.841 F3600
G1 X99.11 Y101.51 E5.860 F3600
G1 X98.94 Y101.46 E5.886 F3600
G1 E2.886 F1800
;LAYER:2
( Nozzle 0 )
G1 Z0.60 F300
G0 X99.00 Y101.11 F6000
G1 E5.886 F1800
G1 X99.00 Y101.11 E5.886 F3600
G1 X99.01 Y101.10 E5.888 F3600
G1 X99.08 Y101.09 E5.898 F3600
G1 X99.08 Y101.09 E5.899 F3600
G1 X99.25 Y101.05 E5.924 F3600
G1 X99.28 Y101.04 E5.928 F3600
G1 X99.28 Y101.04 E5.928 F3600
G1 X99.59 Y101.02 E5.973 F3600
G1 X99.61 Y101.02 E5.976 F3600
G1 X100.00 Y101.01 E6.031 F3600
G1 X100.39 Y101.02 E6.086 F3600
G1 X100.41 Y101.02 E6.089 F3600
G1 X100.72 Y101.04 E6.133 F3600
G1 X100.72 Y101.04 E6.134 F3600
G1 X100.75 Y101.05 E6.137 F3600
G1 X100.92 Y101.09 E6.162 F3600
G1 X100.92 Y101.09 E6.163 F3600
G1 X100.99 Y101.10 E6.173 F3600
G1 X101.00 Y101.11 E6.175 F3600
G1 X101.00 Y101.11 E6.176 F3600
G1 X100.94 Y101.19 E6.189 F3600
G1 X100.94 Y101.19 E6.191 F3600
G1 X100.85 Y101.26 E6.207 F3600
G1 X100.83 Y101.26 E6.209 F3600
G1 X100.82 Y101.27 E6.211 F3600
G1 X100.63 Y101.33 E6.239 F3600
G1 X100.42 Y101.35 E6.269 F3600
G1 X100.41 Y101.35 E6.271 F3600
G1 X100.35 Y101.36 E6.280 F3600
G1 X100.12 Y101.37 E6.312 F3600
G1 X100.12 Y101.37 E6.312 F3600
G1 X100.00 Y101.37 E6.329 F3600
G1 X99.88 Y101.37 E6.347 F3600
G1 X99.87 Y101.37 E6.347 F3600
G1 X99.65 Y101.36 E6.379 F3600
G1 X99.59 Y101.35 E6.388 F3600
G1 X99.58 Y101.35 E6.390 F3600
G1 X99.37 Y101.33 E6.420 F3600
G1 X99.18 Y101.27 E6.448 F3600
G1 X99.17 Y101.26 E6.450 F3600
G1 X99.14 Y101.25 E6.455 F3600
G1 X99.07 Y101.21 E6.465 F3600
G1 X99.06 Y101.19 E6.470 F3600
G1 X99.00 Y101.11 E6.484 F3600
G1 E3.484 F1800
G0 X98.53 Y101.34 F6000
G1 E6.484 F1800
G1 X98.47 Y101.12 E6.516 F3600
G1 X98.47 Y100.95 E6.541 F3600
G1 X98.60 Y100.75 E6.575 F3600
G1 X98.76 Y100.67 E6.601 F3600
G1 X98.77 Y100.67 E6.602 F3600
G1 X98.83 Y100.63 E6.612 F3600
G1 X98.97 Y100.60 E6.631 F3600
G1 X98.97 Y100.60 E6.632 F3600
G1 X99.18 Y100.55 E6.662 F3600
G1 X99.24 Y100.55 E6.671 F3600
G1 X99.57 Y100.52 E6.719 F3600
G1 X99.60 Y100.52 E6.723 F3600
G1 X100.00 Y100.51 E6.780 F3600
G1 X100.40 Y100.52 E6.837 F3600
G1 X100.43 Y100.52 E6.842 F3600
G1 X100.76 Y100.55 E6.889 F3600
G1 X100.82 Y100.55 E6.898 F3600
G1 X101.03 Y100.60 E6.929 F3600
G1 X101.03 Y100.60 E6.929 F3600
G1 X101.16 Y100.63 E6.948 F3600
G1 X101.23 Y100.67 E6.959 F3600
G1 X101.24 Y100.67 E6.960 F3600
G1 X101.40 Y100.75 E6.986 F3600
G1 X101.53 Y100.95 E7.020 F3600
G1 X101.53 Y101.12 E7.045 F3600
G1 X101.47 Y101.34 E7.077 F3600
G1 X101.34 Y101.49 E7.105 F3600
G1 X101.33 Y101.50 E7.108 F3600
G1 X101.30 Y101.56 E7.117 F3600
G1 X101.23 Y101.60 E7.128 F3600
G1 X101.22 Y101.61 E7.129 F3600
G1 X101.07 Y101.72 E7.157 F3600
G1 X100.97 Y101.74 E7.170 F3600
G1 X100.97 Y101.74 E7.171 F3600
G1 X100.78 Y101.81 E7.200 F3600
G1 X100.78 Y101.81 E7.200 F3600
G1 X100.75 Y101.82 E7.204 F3600
G1 X100.49 Y101.85 E7.242 F3600
G1 X100.48 Y101.85 E7.242 F3600
G1 X100.39 Y101.86 E7.256 F3600
G1 X100.13 Y101.87 E7.292 F3600
G1 X100.13 Y101.87 E7.293 F3600
G1 X100.00 Y101.87 E7.312 F3600
G1 X99.87 Y101.87 E7.331 F3600
G1 X99.86 Y101.87 E7.331 F3600
G1 X99.61 Y101.86 E7.367 F3600
G1 X99.52 Y101.85 E7.381 F3600
G1 X99.51 Y101.85 E7.381 F3600
G1 X99.25 Y101.82 E7.419 F3600
G1 X99.22 Y101.81 E7.423 F3600
G1 X99.22 Y101.81 E7.424 F3600
G1 X99.03 Y101.74 E7.452 F3600
G1 X99.02 Y101.74 E7.453 F3600
G1 X98.93 Y101.71 E7.468 F3600
G1 X98.92 Y101.71 E7.469 F3600
G1 X98.71 Y101.57 E7.505 F3600
G1 X98.67 Y101.50 E7.516 F3600
G1 X98.66 Y101.49 E7.518 F3600
G1 X98.53 Y101.34 E7.546 F3600
G1 E4.546 F1800
;LAYER:3
( Nozzle 0 )
G1 Z0.80 F300
G0 X100.97 Y100.97 F6000
G1 E7.546 F1800
G1 X100.99 Y100.97 E7.548 F3600
G1 X101.09 Y101.01 E7.564 F3600
G1 X101.11 Y101.03 E7.568 F3600
G1 X101.12 Y101.06 E7.572 F3600
G1 X101.11 Y101.08 E7.575 F3600
G1 X101.08 Y101.16 E7.587 F3600
G1 X101.07 Y101.19 E7.592 F3600
G1 X101.04 Y101.29 E7.607 F3600
G1 X101.02 Y101.32 E7.612 F3600
G1 X100.90 Y101.47 E7.638 F3600
G1 X100.87 Y101.52 E7.647 F3600
G1 X100.80 Y101.58 E7.661 F3600
G1 X100.80 Y101.58 E7.661 F3600
G1 X100.76 Y101.59 E7.667 F3600
G1 X100.56 Y101.69 E7.699 F3600
G1 X100.40 Y101.72 E7.722 F3600
G1 X100.40 Y101.72 E7.722 F3600
G1 X100.30 Y101.74 E7.737 F3600
G1 X100.18 Y101.75 E7.754 F3600
G1 X100.00 Y101.75 E7.779 F3600
G1 X99.82 Y101.75 E7.805 F3600
G1 X99.70 Y101.74 E7.822 F3600
G1 X99.60 Y101.72 E7.837 F3600
G1 X99.60 Y101.72 E7.837 F3600
G1 X99.44 Y101.69 E7.860 F3600
G1 X99.24 Y101.59 E7.892 F3600
G1 X99.20 Y101.58 E7.898 F3600
G1 X99.20 Y101.58 E7.898 F3600
G1 X99.12 Y101.52 E7.912 F3600
G1 X99.09 Y101.47 E7.920 F3600
G1 X98.98 Y101.32 E7.947 F3600
G1 X98.95 Y101.26 E7.957 F3600
G1 X98.94 Y101.23 E7.961 F3600
G1 X98.89 Y101.10 E7.981 F3600
G1 X98.88 Y101.06 E7.987 F3600
G1 X98.89 Y101.03 E7.990 F3600
G1 X98.91 Y101.01 E7.995 F3600
G1 X99.01 Y100.97 E8.011 F3600
G1 X99.03 Y100.97 E8.013 F3600
G1 X99.03 Y100.96 E8.014 F3600
G1 X99.14 Y100.94 E8.030 F3600
G1 X99.15 Y100.94 E8.030 F3600
G1 X99.28 Y100.91 E8.050 F3600
G1 X99.36 Y100.91 E8.062 F3600
G1 X99.37 Y100.91 E8.062 F3600
G1 X99.61 Y100.89 E8.097 F3600
G1 X99.69 Y100.89 E8.109 F3600
G1 X99.69 Y100.89 E8.109 F3600
G1 X100.00 Y100.89 E8.153 F3600
G1 X100.31 Y100.89 E8.197 F3600
G1 X100.31 Y100.89 E8.197 F3600
G1 X100.39 Y100.89 E8.208 F3600
G1 X100.63 Y100.91 E8.243 F3600
G1 X100.63 Y100.91 E8.243 F3600
G1 X100.72 Y100.91 E8.255 F3600
G1 X100.85 Y100.94 E8.275 F3600
G1 X100.86 Y100.94 E8.276 F3600
G1 X100.97 Y100.96 E8.292 F3600
G1 X100.97 Y100.97 E8.293 F3600
G1 E5.293 F1800
G0 X98.72 Y101.83 F6000
G1 E8.293 F1800
G1 X98.69 Y101.77 E8.302 F3600
G1 X98.68 Y101.74 E8.307 F3600
G1 X98.57 Y101.59 E8.333 F3600
G1 X98.53 Y101.53 E8.344 F3600
G1 X98.51 Y101.51 E8.347 F3600
G1 X98.50 Y101.50 E8.349 F3600
G1 X98.47 Y101.42 E8.362 F3600
G1 X98.40 Y101.23 E8.391 F3600
G1 X98.38 Y101.09 E8.410 F3600
G1 X98.38 Y100.99 E8.424 F3600
G1 X98.44 Y100.77 E8.457 F3600
G1 X98.62 Y100.60 E8.492 F3600
G1 X98.63 Y100.59 E8.494 F3600
G1 X98.67 Y100.57 E8.501 F3600
G1 X98.83 Y100.51 E8.525 F3600
G1 X98.83 Y100.51 E8.525 F3600
G1 X98.88 Y100.48 E8.533 F3600
G1 X99.05 Y100.45 E8.557 F3600
G1 X99.05 Y100.45 E8.557 F3600
G1 X99.22 Y100.42 E8.582 F3600
G1 X99.33 Y100.41 E8.598 F3600
G1 X99.33 Y100.41 E8.598 F3600
G1 X99.58 Y100.39 E8.635 F3600
G1 X99.69 Y100.39 E8.649 F3600
G1 X100.00 Y100.39 E8.694 F3600
G1 X100.31 Y100.39 E8.739 F3600
G1 X100.41 Y100.39 E8.753 F3600
G1 X100.67 Y100.41 E8.790 F3600
G1 X100.67 Y100.41 E8.790 F3600
G1 X100.78 Y100.42 E8.806 F3600
G1 X100.95 Y100.45 E8.831 F3600
G1 X100.95 Y100.45 E8.831 F3600
G1 X101.12 Y100.48 E8.855 F3600
G1 X101.17 Y100.51 E8.863 F3600
G1 X101.17 Y100.51 E8.863 F3600
G1 X101.33 Y100.57 E8.887 F3600
G1 X101.37 Y100.59 E8.894 F3600
G1 X101.38 Y100.60 E8.896 F3600
G1 X101.56 Y100.77 E8.931 F3600
G1 X101.62 Y100.99 E8.964 F3600
G1 X101.62 Y101.09 E8.978 F3600
G1 X101.60 Y101.22 E8.996 F3600
G1 X101.54 Y101.34 E9.016 F3600
G1 X101.54 Y101.36 E9.018 F3600
G1 X101.49 Y101.51 E9.040 F3600
G1 X101.48 Y101.51 E9.041 F3600
G1 X101.47 Y101.53 E9.044 F3600
G1 X101.43 Y101.59 E9.055 F3600
G1 X101.32 Y101.74 E9.081 F3600
G1 X101.31 Y101.77 E9.086 F3600
G1 X101.28 Y101.83 E9.095 F3600
G1 X101.05 Y102.01 E9.137 F3600
G1 X101.05 Y102.02 E9.138 F3600
G1 X101.04 Y102.02 E9.139 F3600
G1 X100.98 Y102.05 E9.150 F3600
G1 X100.96 Y102.05 E9.152 F3600
G1 X100.76 Y102.15 E9.184 F3600
G1 X100.70 Y102.17 E9.192 F3600
G1 X100.50 Y102.21 E9.223 F3600
G1 X100.50 Y102.21 E9.223 F3600
G1 X100.36 Y102.24 E9.242 F3600
G1 X100.19 Y102.25 E9.267 F3600
G1 X100.00 Y102.26 E9.294 F3600
G1 X99.81 Y102.25 E9.322 F3600
G1 X99.63 Y102.24 E9.346 F3600
G1 X99.50 Y102.21 E9.366 F3600
G1 X99.50 Y102.21 E9.366 F3600
G1 X99.29 Y102.17 E9.396 F3600
G1 X99.24 Y102.15 E9.404 F3600
G1 X99.03 Y102.05 E9.437 F3600
G1 X99.02 Y102.05 E9.439 F3600
G1 X98.95 Y102.02 E9.449 F3600
G1 X98.94 Y102.02 E9.451 F3600
G1 X98.94 Y102.01 E9.451 F3600
G1 X98.72 Y101.83 E9.493 F3600
G1 E6.493 F1800
G0 X99.97 Y101.24 F6000
G1 E9.493 F1800
G1 X99.81 Y101.40 E9.526 F3600
G1 E6.526 F1800
;LAYER:4
( Nozzle 0 )
G1 Z1.00 F300
G0 X100.81 Y101.94 F6000
G1 E9.526 F1800
G1 X100.75 Y102.03 E9.542 F3600
G1 X100.68 Y102.08 E9.554 F3600
G1 X100.66 Y102.10 E9.559 F3600
G1 X100.56 Y102.15 E9.575 F3600
G1 X100.51 Y102.17 E9.582 F3600
G1 X100.42 Y102.19 E9.595 F3600
G1 X100.27 Y102.23 E9.617 F3600
G1 X100.22 Y102.23 E9.625 F3600
G1 X100.21 Y102.23 E9.626 F3600
G1 X100.00 Y102.25 E9.656 F3600
G1 X99.79 Y102.23 E9.686 F3600
G1 X99.78 Y102.23 E9.687 F3600
G1 X99.73 Y102.23 E9.694 F3600
G1 X99.58 Y102.19 E9.717 F3600
G1 X99.49 Y102.17 E9.730 F3600
G1 X99.44 Y102.15 E9.737 F3600
G1 X99.34 Y102.10 E9.753 F3600
G1 X99.32 Y102.08 E9.757 F3600
G1 X99.25 Y102.03 E9.770 F3600
G1 X99.18 Y101.94 E9.786 F3600
G1 X99.18 Y101.92 E9.789 F3600
G1 X99.17 Y101.90 E9.791 F3600
G1 X99.05 Y101.58 E9.841 F3600
G1 X99.00 Y101.48 E9.857 F3600
G1 X98.94 Y101.41 E9.870 F3600
G1 X98.86 Y101.22 E9.900 F3600
G1 X98.84 Y101.05 E9.923 F3600
G1 X98.84 Y101.03 E9.927 F3600
G1 X98.88 Y100.97 E9.937 F3600
G1 X98.95 Y100.91 E9.950 F3600
G1 X99.01 Y100.88 E9.960 F3600
G1 X99.07 Y100.86 E9.969 F3600
G1 X99.24 Y100.84 E9.993 F3600
G1 X99.25 Y100.83 E9.994 F3600
G1 X99.32 Y100.82 E10.004 F3600
G1 X99.47 Y100.81 E10.027 F3600
G1 X99.47 Y100.81 E10.027 F3600
G1 X99.63 Y100.80 E10.049 F3600
G1 X99.80 Y100.80 E10.073 F3600
G1 X100.00 Y100.80 E10.102 F3600
G1 X100.20 Y100.80 E10.131 F3600
G1 X100.37 Y100.80 E10.155 F3600
G1 X100.52 Y100.81 E10.177 F3600
G1 X100.53 Y100.81 E10.177 F3600
G1 X100.68 Y100.82 E10.199 F3600
G1 X100.75 Y100.83 E10.210 F3600
G1 X100.76 Y100.84 E10.211 F3600
G1 X100.92 Y100.86 E10.235 F3600
G1 X100.99 Y100.88 E10.244 F3600
G1 X101.05 Y100.91 E10.254 F3600
G1 X101.12 Y100.97 E10.267 F3600
G1 X101.16 Y101.03 E10.277 F3600
G1 X101.16 Y101.05 E10.281 F3600
G1 X101.14 Y101.22 E10.304 F3600
G1 X101.06 Y101.41 E10.334 F3600
G1 X101.00 Y101.48 E10.347 F3600
G1 X100.95 Y101.58 E10.363 F3600
G1 X100.83 Y101.90 E10.413 F3600
G1 X100.82 Y101.92 E10.415 F3600
G1 X100.81 Y101.94 E10.418 F3600
G1 E7.418 F1800
G0 X101.40 Y101.79 F6000
G1 E10.418 F1800
G1 X101.29 Y102.09 E10.463 F3600
G1 X101.28 Y102.12 E10.469 F3600
G1 X101.25 Y102.19 E10.479 F3600
G1 X101.11 Y102.38 E10.512 F3600
G1 X101.00 Y102.46 E10.532 F3600
G1 X101.00 Y102.47 E10.534 F3600
G1 X100.96 Y102.51 E10.541 F3600
G1 X100.95 Y102.52 E10.543 F3600
G1 X100.76 Y102.61 E10.573 F3600
G1 X100.66 Y102.65 E10.589 F3600
G1 X100.53 Y102.68 E10.608 F3600
G1 X100.34 Y102.72 E10.636 F3600
G1 X100.25 Y102.73 E10.649 F3600
G1 X100.24 Y102.73 E10.649 F3600
G1 X100.00 Y102.75 E10.684 F3600
G1 X99.76 Y102.73 E10.719 F3600
G1 X99.75 Y102.73 E10.719 F3600
G1 X99.66 Y102.72 E10.733 F3600
G1 X99.47 Y102.68 E10.761 F3600
G1 X99.34 Y102.65 E10.779 F3600
G1 X99.24 Y102.61 E10.796 F3600
G1 X99.05 Y102.52 E10.825 F3600
G1 X99.04 Y102.51 E10.827 F3600
G1 X99.00 Y102.47 E10.834 F3600
G1 X98.99 Y102.46 E10.836 F3600
G1 X98.89 Y102.38 E10.856 F3600
G1 X98.75 Y102.19 E10.889 F3600
G1 X98.72 Y102.12 E10.899 F3600
G1 X98.71 Y102.09 E10.905 F3600
G1 X98.59 Y101.79 E10.951 F3600
G1 X98.58 Y101.76 E10.956 F3600
G1 X98.50 Y101.66 E10.974 F3600
G1 X98.38 Y101.35 E11.021 F3600
G1 X98.38 Y101.35 E11.021 F3600
G1 X98.37 Y101.33 E11.024 F3600
G1 X98.33 Y101.06 E11.063 F3600
G1 X98.35 Y100.90 E11.086 F3600
G1 X98.37 Y100.84 E11.095 F3600
G1 X98.49 Y100.63 E11.130 F3600
G1 X98.50 Y100.62 E11.132 F3600
G1 X98.70 Y100.47 E11.167 F3600
G1 X98.73 Y100.46 E11.172 F3600
G1 X98.74 Y100.46 E11.173 F3600
G1 X98.83 Y100.42 E11.188 F3600
G1 X98.93 Y100.39 E11.202 F3600
G1 X98.93 Y100.38 E11.203 F3600
G1 X98.95 Y100.38 E11.206 F3600
G1 X99.15 Y100.34 E11.235 F3600
G1 X99.16 Y100.34 E11.235 F3600
G1 X99.26 Y100.32 E11.250 F3600
G1 X99.44 Y100.31 E11.276 F3600
G1 X99.44 Y100.31 E11.276 F3600
G1 X99.61 Y100.30 E11.300 F3600
G1 X99.79 Y100.30 E11.326 F3600
G1 X100.00 Y100.30 E11.356 F3600
G1 X100.21 Y100.30 E11.386 F3600
G1 X100.39 Y100.30 E11.412 F3600
G1 X100.56 Y100.31 E11.436 F3600
G1 X100.56 Y100.31 E11.436 F3600
G1 X100.74 Y100.32 E11.462 F3600
G1 X100.84 Y100.34 E11.477 F3600
G1 X100.84 Y100.34 E11.477 F3600
G1 X101.05 Y100.38 E11.506 F3600
G1 X101.07 Y100.38 E11.510 F3600
G1 X101.07 Y100.39 E11.510 F3600
G1 X101.16 Y100.42 E11.524 F3600
G1 X101.26 Y100.46 E11.540 F3600
G1 X101.27 Y100.46 E11.540 F3600
G1 X101.30 Y100.47 E11.546 F3600
G1 X101.50 Y100.62 E11.580 F3600
G1 X101.51 Y100.63 E11.583 F3600
G1 X101.63 Y100.84 E11.617 F3600
G1 X101.65 Y100.90 E11.626 F3600
G1 X101.66 Y101.06 E11.650 F3600
G1 X101.62 Y101.33 E11.689 F3600
G1 X101.62 Y101.34 E11.690 F3600
G1 X101.62 Y101.35 E11.691 F3600
G1 X101.50 Y101.66 E11.738 F3600
G1 X101.42 Y101.76 E11.756 F3600
G1 X101.40 Y101.79 E11.762 F3600
G1 E8.762 F1800
G0 X99.89 Y101.89 F6000
G1 E11.762 F1800
G1 X99.28 Y101.28 E11.884 F3600
G1 X99.86 Y101.15 E11.968 F3600
G1 X100.49 Y101.78 E12.097 F3600
G1 X100.71 Y101.30 E12.173 F3600
G1 X100.58 Y101.17 E12.199 F3600
G1 E9.199 F1800
;LAYER:5
( Nozzle 0 )
G1 Z1.20 F300
G0 X99.16 Y100.79 F6000
G1 E12.199 F1800
G1 X99.34 Y100.76 E12.227 F3600
G1 X99.37 Y100.76 E12.231 F3600
G1 X99.58 Y100.75 E12.261 F3600
G1 X99.59 Y100.75 E12.262 F3600
G1 X99.66 Y100.74 E12.272 F3600
G1 X99.89 Y100.74 E12.305 F3600
